X: 3336
T: Den bitte Mand
B:[[Notböcker/Melodier til gamle danske Almuedanse for Violin solo]]
O:Danmark
Z:Søren Bak Vestergaard
M: 3/4
L: 1/8
K: G
(GB)|dddcBA|GGGBAG|FFFcBA|GGGDGB|\
dddcBA|GGGBAG|FFFcBA|G2 z2:| |:D2|E2 G2 (FE)|\
D2 B2 (AG)|F2 c2 (BA)|G2 B2 D2|E2 G2 (FE)|D2 B2 (AG)|F2 c2 (BA)|G2 z2:|
(:musicend:)
(:music:)
